tools/download-figma-icons/icons/outlined-medium/cold.svg

<svg width="24" height="24" viewBox="0 0 24 24" fill="none" xmlns="http://www.w3.org/2000/svg">
<path fill-rule="evenodd" clip-rule="evenodd" d="M11.6216 14.7375V3.375C11.6216 2.47989 11.2659 1.62145 10.6327 0.988515C9.99954 0.355579 9.14078 0 8.24535 0C7.34991 0 6.49115 0.355579 5.85799 0.988515C5.22482 1.62145 4.86911 2.47989 4.86911 3.375V14.7375C4.11956 15.3684 3.56153 16.1964 3.25811 17.1278C2.9547 18.0592 2.918 19.0569 3.15217 20.008C3.38634 20.9592 3.88203 21.8259 4.58321 22.5101C5.28438 23.1944 6.16307 23.6689 7.11993 23.88C7.48975 23.9598 7.86701 24 8.24535 24C9.32101 23.9978 10.3701 23.6655 11.2507 23.0481C12.1313 22.4306 12.801 21.5577 13.1693 20.5474C13.5376 19.5371 13.5866 18.4381 13.3098 17.399C13.033 16.36 12.4437 15.4309 11.6216 14.7375ZM10.6087 21.6675C10.1686 22.0254 9.65291 22.2789 9.1006 22.4088C8.54828 22.5387 7.97368 22.5417 7.42004 22.4175C6.72392 22.2522 6.08962 21.8913 5.59195 21.3774C5.09428 20.8635 4.754 20.2181 4.61125 19.5172C4.46851 18.8164 4.52924 18.0893 4.7863 17.4218C5.04335 16.7543 5.48601 16.1743 6.06205 15.75L6.36966 15.525V3.375C6.36966 2.87772 6.56728 2.40081 6.91903 2.04917C7.27079 1.69754 7.74788 1.5 8.24535 1.5C8.74281 1.5 9.2199 1.69754 9.57166 2.04917C9.92342 2.40081 10.121 2.87772 10.121 3.375V15.4875L10.4361 15.7125C10.904 16.0491 11.2879 16.489 11.5581 16.998C11.8284 17.507 11.9776 18.0714 11.9943 18.6474C12.011 19.2234 11.8947 19.7954 11.6544 20.3192C11.4141 20.843 11.0563 21.3043 10.6087 21.6675ZM8.99561 17.0326V12.4351H7.49506V17.0326C7.10011 17.2049 6.77656 17.5079 6.57881 17.8906C6.38106 18.2733 6.32117 18.7124 6.40921 19.1341C6.49725 19.5558 6.72785 19.9343 7.06224 20.206C7.39663 20.4777 7.81441 20.626 8.24533 20.626C8.67625 20.626 9.09403 20.4777 9.42842 20.206C9.76281 19.9343 9.99341 19.5558 10.0815 19.1341C10.1695 18.7124 10.1096 18.2733 9.91185 17.8906C9.7141 17.5079 9.39055 17.2049 8.99561 17.0326ZM15.7481 9.75H20.2497C20.4487 9.75 20.6395 9.82902 20.7803 9.96967C20.921 10.1103 21 10.3011 21 10.5C21 10.6989 20.921 10.8897 20.7803 11.0303C20.6395 11.171 20.4487 11.25 20.2497 11.25H15.7481C15.5491 11.25 15.3583 11.171 15.2176 11.0303C15.0768 10.8897 14.9978 10.6989 14.9978 10.5C14.9978 10.3011 15.0768 10.1103 15.2176 9.96967C15.3583 9.82902 15.5491 9.75 15.7481 9.75Z" fill="black"/>
</svg>

<svg xmlns="http://www.w3.org/2000/svg" width="24" height="24" fill="none" viewBox="0 0 24 24"><path fill="currentColor" fill-rule="evenodd" d="M11.622 14.738V3.375A3.374 3.374 0 0 0 8.245 0 3.377 3.377 0 0 0 4.87 3.375v11.363a5.25 5.25 0 0 0 2.25 9.142 5.254 5.254 0 0 0 6.05-3.333 5.25 5.25 0 0 0-1.547-5.81m-1.013 6.93a3.75 3.75 0 0 1-3.189.75 3.751 3.751 0 0 1-1.358-6.668l.308-.225V3.375a1.875 1.875 0 0 1 3.751 0v12.113l.315.225a3.75 3.75 0 0 1 .173 5.955m-1.613-4.635v-4.598h-1.5v4.598a1.875 1.875 0 1 0 1.5 0m6.752-7.283h4.502a.75.75 0 0 1 0 1.5h-4.502a.75.75 0 1 1 0-1.5" clip-rule="evenodd"/></svg>
